X:1
T:Title
L:1/8
M:4/4
I:linebreak $
K:G
V:1 treble nm="Idle" snm="Idle"
V:1
 A2 AB AFED | B2 BA Bc d2 | A2 AB AFED | gfed BcdB |$ A2 AB AFED | B2 BA B^cdB | A2 AB AFED | %7
w: |||||||
w: |||||||
 gfed B^cde || f2 fd g2 ge |$ f2 fd edBA | f2 fd g2 ge | afed B^cde | f2 fd f4 | f2 fd edBA |$ %14
w: |||||en * g *||
w: |||* * A * * *|* G * * * * * A|||
 defg afba | gfed B^cdB |] gfed B^cde | d8 |] %18
w: ||||
w: ||||
